tools/download-figma-icons/icons/outlined-large/surface-25.svg

<svg width="64" height="64" viewBox="0 0 64 64" fill="none" xmlns="http://www.w3.org/2000/svg">
<path opacity="0.2" d="M32.093 50.0005C31.848 50.0005 31.603 49.9405 31.381 49.8205L0.788 33.3205C0.302 33.0595 0 32.5505 0 31.9985C0 31.4465 0.305 30.9385 0.791 30.6785L16.181 22.4285L31.377 14.1825C31.824 13.9405 32.361 13.9405 32.809 14.1825L63.216 30.6825C63.699 30.9455 64 31.4515 64 32.0005C64 32.5495 63.699 33.0565 63.216 33.3185L32.809 49.8185C32.585 49.9395 32.339 50.0005 32.093 50.0005ZM4.667 32.0045L32.091 46.7955L59.355 32.0005L32.093 17.2075L17.606 25.0685L4.668 32.0045H4.667Z" fill="black"/>
<path d="M32.046 50.0005C31.801 50.0005 31.556 49.9405 31.334 49.8205L16.038 41.5705C15.552 41.3075 15.249 40.7995 15.25 40.2485C15.251 39.6975 15.555 39.1885 16.041 38.9285L31.33 30.6825C31.777 30.4405 32.314 30.4405 32.762 30.6825L47.966 38.9325C48.449 39.1955 48.75 39.7015 48.75 40.2505C48.75 40.7995 48.449 41.3065 47.966 41.5685L32.762 49.8185C32.538 49.9395 32.292 50.0005 32.046 50.0005ZM19.917 40.2545L32.044 46.7955L44.105 40.2505L32.046 33.7075L19.917 40.2545Z" fill="black"/>
</svg>

<svg xmlns="http://www.w3.org/2000/svg" width="64" height="64" fill="none" viewBox="0 0 64 64"><path fill="currentColor" d="M32.093 50c-.245 0-.49-.06-.712-.18L.788 33.32a1.5 1.5 0 0 1 .003-2.642l15.39-8.25 15.196-8.246a1.5 1.5 0 0 1 1.432 0l30.407 16.5a1.502 1.502 0 0 1 0 2.637l-30.407 16.5c-.224.12-.47.181-.716.181M4.667 32.005l27.424 14.79 27.264-14.794-27.262-14.793-14.487 7.86z" opacity=".2"/><path fill="currentColor" d="M32.046 50c-.245 0-.49-.06-.712-.18l-15.296-8.25a1.502 1.502 0 0 1 .003-2.642l15.289-8.245a1.5 1.5 0 0 1 1.432 0l15.204 8.25a1.502 1.502 0 0 1 0 2.636l-15.204 8.25c-.224.12-.47.181-.716.181m-12.129-9.745 12.127 6.54 12.061-6.544-12.059-6.543z"/></svg>
